dist/img/images.svg

<svg height="512pt" viewBox="0 -43 512 512" width="512pt" xmlns="http://www.w3.org/2000/svg"><path d="m503.464844 426.667969h-443.730469c-4.710937 0-8.535156-3.816407-8.535156-8.535157v-358.398437c0-4.71875 3.824219-8.535156 8.535156-8.535156h443.730469c4.710937 0 8.535156 3.816406 8.535156 8.535156v358.398437c0 4.71875-3.824219 8.535157-8.535156 8.535157zm-435.199219-17.066407h426.667969v-341.335937h-426.667969zm0 0"/><path d="m59.734375 375.464844h-51.199219c-4.710937 0-8.535156-3.8125-8.535156-8.53125v-358.398438c0-4.722656 3.824219-8.535156 8.535156-8.535156h443.730469c4.710937 0 8.535156 3.8125 8.535156 8.535156v51.199219c0 4.71875-3.824219 8.53125-8.535156 8.53125h-384v298.667969c0 4.71875-3.820313 8.53125-8.53125 8.53125zm-42.667969-17.066406h34.132813v-298.664063c0-4.71875 3.824219-8.535156 8.535156-8.535156h384v-34.132813h-426.667969zm0 0"/><path d="m503.464844 426.667969h-228.503906c-3.363282 0-6.410157-1.972657-7.78125-5.042969-1.375-3.054688-.828126-6.648438 1.40625-9.15625l134.640624-151.46875c3.234376-3.652344 9.515626-3.652344 12.757813 0l93.863281 105.601562c1.394532 1.5625 2.152344 3.574219 2.152344 5.664063v45.867187c0 4.71875-3.824219 8.535157-8.535156 8.535157zm-209.5-17.066407h200.96875v-34.09375l-85.332032-96zm0 0"/><path d="m274.960938 426.667969h-215.226563c-4.710937 0-8.535156-3.816407-8.535156-8.535157v-141.867187c0-2.089844.769531-4.101563 2.160156-5.664063l110.933594-124.800781c3.234375-3.652343 9.515625-3.652343 12.757812 0l170.664063 192c2.878906 3.234375 2.878906 8.097657 0 11.332031l-66.371094 74.667969c-1.621094 1.824219-3.941406 2.867188-6.382812 2.867188zm-206.695313-17.066407h202.863281l58.785156-66.136718-159.246093-179.15625-102.402344 115.199218zm0 0"/><path d="m349.867188 213.332031c-23.527344 0-42.667969-19.140625-42.667969-42.664062 0-23.527344 19.140625-42.667969 42.667969-42.667969 23.527343 0 42.667968 19.140625 42.667968 42.667969 0 23.523437-19.140625 42.664062-42.667968 42.664062zm0-68.265625c-14.113282 0-25.601563 11.484375-25.601563 25.601563 0 14.113281 11.488281 25.597656 25.601563 25.597656 14.113281 0 25.597656-11.484375 25.597656-25.597656 0-14.117188-11.484375-25.601563-25.597656-25.601563zm0 0"/></svg>

<svg height="512pt" viewBox="0 -43 512 512" width="512pt" xmlns="http://www.w3.org/2000/svg"><path d="M503.465 426.668H59.735a8.534 8.534 0 0 1-8.536-8.535V59.734a8.534 8.534 0 0 1 8.535-8.535h443.73A8.534 8.534 0 0 1 512 59.734v358.399a8.534 8.534 0 0 1-8.535 8.535zm-435.2-17.066h426.669V68.266H68.266zm0 0"/><path d="M59.734 375.465H8.535A8.53 8.53 0 0 1 0 366.934V8.535A8.531 8.531 0 0 1 8.535 0h443.73a8.531 8.531 0 0 1 8.536 8.535v51.2a8.53 8.53 0 0 1-8.535 8.53h-384v298.669a8.527 8.527 0 0 1-8.532 8.53zm-42.668-17.067H51.2V59.734a8.534 8.534 0 0 1 8.535-8.535h384V17.066H17.066zm486.399 68.27H274.96a8.517 8.517 0 0 1-7.781-5.043 8.52 8.52 0 0 1 1.406-9.156L403.226 261c3.235-3.652 9.516-3.652 12.758 0l93.864 105.602a8.488 8.488 0 0 1 2.152 5.664v45.867a8.534 8.534 0 0 1-8.535 8.535zm-209.5-17.066h200.969v-34.094l-85.332-96zm0 0"/><path d="M274.96 426.668H59.735a8.534 8.534 0 0 1-8.535-8.535V276.266c0-2.09.77-4.102 2.16-5.664L164.293 145.8c3.234-3.653 9.516-3.653 12.758 0l170.664 192a8.514 8.514 0 0 1 0 11.332L281.344 423.8a8.535 8.535 0 0 1-6.383 2.867zM68.267 409.602H271.13l58.785-66.137-159.246-179.156L68.266 279.508zm281.6-196.27c-23.527 0-42.668-19.14-42.668-42.664 0-23.527 19.14-42.668 42.668-42.668s42.668 19.14 42.668 42.668c0 23.523-19.14 42.664-42.668 42.664zm0-68.266c-14.113 0-25.601 11.485-25.601 25.602 0 14.113 11.488 25.598 25.601 25.598s25.598-11.485 25.598-25.598c0-14.117-11.485-25.602-25.598-25.602zm0 0"/></svg>
